X: 11
T: Engem anyám megátkozott
S: Mezőkölpény
M:2/4
L:1/4
K:C
d/d/ c/G/ | c<d | e<d |
e/d/ d/c/ | d A | G<F |
(cd/)c/ A<G | D C F G | 
c/_B/A/G/ A<F | D2 D z |
W: Engem anyám megátkozott
W: Mikor a világra hozott
W: Hogy ne legyek boldog soha,
W: Semmi ifijuságomba.
W:
W: Édesanyám sok szép szava,
W: Kit fogadtam, kit nem soha
W: Megfogadnám, de már késő.
W: Hull a könnyem, mint az eső
W:
W: Hull a könnyem, mint az eső,
W: Fá a szívem, kívül-belül.
W: Fáj a szívem kívül-belül,
W: Bánat szorítja kétfelől.
W:
W: Bánat, bánat, de nehéz vagy,
W: De rég, hogy a szívemen vagy,
W: Eladnálak, de nincs kinek,
W: Bánatja van mindenkinek.
W: 
W: Utca, utca bánat utca,
W: Bánat kővel van kirakva,
W: Az én babám kirakatta,
W: Hogy én sírva járjak rajta.

